X: 20682
M: 2/4
L: 1/16
K: C
|:\
cBcA Gcfa | gefd e2cc ::\
c2 |\
cdec gcec | defg afde |
cdec gcec | ded^c dAAB |\
cdec gcec | defg afde |\
cdcA Gcfa | gefd e2cc :|


